Origami/22x22/apps/league-of-legends.svg

<svg width="22" height="22" version="1.1" viewBox="0 0 22 22" xmlns="http://www.w3.org/2000/svg">
 <path d="M 11,1 A 10,10 0 0 0 1,11 10,10 0 0 0 11,21 10,10 0 0 0 21,11 10,10 0 0 0 11,1 Z" style="fill:#c88937"/>
 <path d="M 1.01075,11.209 A 10,10 0 0 0 1,11.5 10,10 0 0 0 11,21.5 10,10 0 0 0 21,11.5 10,10 0 0 0 20.9895,11.291 10,10 0 0 1 11,21 10,10 0 0 1 1.011,11.209 Z" style="opacity:.2"/>
 <path d="m11 1a10 10 0 0 0 -10 10 10 10 0 0 0 0.01075 0.209 10 10 0 0 1 9.989 -9.709 10 10 0 0 1 9.9895 9.791 10 10 0 0 0 0.0105 -0.291 10 10 0 0 0 -10 -10z" style="fill:#ffffff;opacity:.2"/>
 <path d="m6.8333335 6.5h4.3333335l-1.166667 1v6.5l1.166667 0.5 3.333333-0.5 2-1.5625-1 4.0625h-9l1.5-0.9375v-8.0625z" style="fill-rule:evenodd;opacity:.2"/>
 <path d="m6.8333335 6h4.3333335l-1.166667 1v6.5l1.166667 0.5 3.333333-0.5 2-1.5625-1 4.0625h-9l1.5-0.9375v-8.0625z" style="fill-rule:evenodd;fill:#ffffff"/>
</svg>

<svg xmlns="http://www.w3.org/2000/svg" width="22" height="22" version="1.1" viewBox="0 0 22 22">
 <path style="fill:#c88937" d="M 11,1 A 10,10 0 0 0 1,11 10,10 0 0 0 11,21 10,10 0 0 0 21,11 10,10 0 0 0 11,1 Z"/>
 <path style="opacity:0.2" d="M 1.01075,11.209 A 10,10 0 0 0 1,11.5 10,10 0 0 0 11,21.5 10,10 0 0 0 21,11.5 10,10 0 0 0 20.9895,11.291 10,10 0 0 1 11,21 10,10 0 0 1 1.011,11.209 Z"/>
 <path style="opacity:0.2;fill:#ffffff" d="m 11,1 a 10,10 0 0 0 -10,10 10,10 0 0 0 0.01075,0.209 10,10 0 0 1 9.989,-9.709 10,10 0 0 1 9.9895,9.791 10,10 0 0 0 0.0105,-0.291 10,10 0 0 0 -10,-10 z"/>
 <path style="opacity:0.2;fill-rule:evenodd" d="M 6.8333335,6.5 H 11.166667 L 10,7.5 V 14 L 11.166667,14.5 14.5,14 l 2,-1.5625 -1,4.0625 h -9 L 8,15.5625 V 7.5 Z"/>
 <path style="fill:#ffffff;fill-rule:evenodd" d="M 6.8333335,6 H 11.166667 L 10,7 v 6.5 L 11.166667,14 14.5,13.5 16.5,11.9375 15.5,16 h -9 L 8,15.0625 V 7 Z"/>
</svg>
